X: 1
T: Tino Mori
O: Macedonia
S: Deborah Jones ,1982 Vancouver Folk Dance Club
Z: Chords modified by John Chambers
M: 7/8
L: 1/8
K: C
|: "C"c3-c2 [c2g2] | [c2g2] [Af] [G2e2] [G2d2] | "F"[A3f3]  "C"[G4e4] | "G7"[F3d3] "C"[E4c4] |
w: 1.Bog* da bi-**e, Ti-no mo-ri,
w: 2.\vSto mi te ar-*ma-*sa-ja, Ti-no,
w: 3.Dur* no Gev-*ge-*li-ja, Ti-no,
w: 4.Nad** gla-*va mu sto-ji, Ti-no,
| "C"[G2e2] [Af]  ([B2g2] [Af][Ge]) | "G7"[F3-d3-][F2d2] [G2e2]| ([F2d2] [Ec]) "C"[E2-c2-][E2c2] | [E3c3] [E4c4]|
w: Ti-no mo-ri,* tvoj-*ta sta-*ra* maj-ka,
w: Ti-no mo-ri,* mo\vc-nu* na* da-*le-ku,
w: Ti-no mo-ri,* za del-jot tu-run-d\vzu-la,
w: Ti-no mo-ri,* truj-*\vca i-*kim-*d\vzi-ji,
| "F"[A3f3]  "C"[G4e4] | "G7"[F3d3]  "C"[E4c4] | [G2e2] [Af] [B2g2] [Af][Ge] | "G7"[F3-d3-][F3d3] [G2e2]|
w: Ti-no mo-ri, Ti-no mo-ri,* tvoj-*ot
w: Ti-no mo-ri, Ti-no mo-ri,* dur* na
w: Ti-no mo-ri, Ti-no mo-ri,* za del-jot
w: Ti-no mo-ri, Ti-no mo-ri,* truj-*\vca
| "G7"([F2d2] [Ec]) "C"[E4c4]| [G3e3] "G7"([Fd][Ge] [Fd][Fc]) | "C"[E3-c3-][E2-c2-][E2-c2-] | [E3-c3-] [E2c2] z2 :|
w: sta-*ri tat-ko*** de.
w: Gev-*ge-li-ja*** de.
w: tu-*run-d\vzu-la,*** de.
w: i-*kim-d\vzi-ji,*** de.
|: "C"cGc  "G7"d2 dc | "C"e2 d "G7"d2 dc| "C"efg "G7"e2 dc | "C"cGc "G7"d2 dc | "C"e2 d "G7"d2 dc | "C"c3 c2 z2 :|
